Papirus/22x22/apps/telegram.svg

<svg width="22" height="22" version="1" xmlns="http://www.w3.org/2000/svg">
 <circle cx="11" cy="11.5" r="10" style="opacity:.2"/>
 <circle cx="11" cy="11" r="10" style="fill:#28a4e2"/>
 <path d="m11 1c-5.5395 0-9.999 4.46-9.999 10 0 0.08386-2e-3 0.166645 0 0.25 0.1321-5.423 4.5435-9.75 9.999-9.75s9.867 4.3268 9.999 9.75c2e-3 -0.08335 0-0.16614 0-0.25 0-5.54-4.4595-10-9.999-10z" style="fill:#ffffff;opacity:.2"/>
 <path d="m14.539454 16.064779c0.190223-0.368845 1.283264-6.675683 1.439519-8.3060121 0.169042-1.615519-0.712367-1.3150995-1.523404-1.0421875-1.989788 0.6718785-8.2808675 3.3952606-10.002858 4.2940826-0.423938 0.175794-0.6071821 0.474064-0.298717 0.732223 0.265588 0.218821 1.237427 0.519365 2.0211905 0.671884 0.668123 0.202411 1.1870905 0.0085 1.666141-0.261695 1.15125-0.682568 4.581713-2.853368 4.766448-2.974369 0.184734-0.121002 0.386923 0.103558 0.283534 0.212269-0.10339 0.10871-2.532899 2.287458-3.330563 3.272542-0.42259 0.541643-0.409932 0.830819 0.02419 1.172375 0.97392 0.763708 3.576036 2.504767 3.963222 2.610002 0.49372 0.134192 0.782877 0.02302 0.991301-0.381114z" style="opacity:.2"/>
 <path d="m14.539454 15.564779c0.190223-0.368845 1.283264-6.6756827 1.439519-8.3060121 0.169042-1.615519-0.712367-1.3150995-1.523404-1.0421875-1.989788 0.6718785-8.2808675 3.3952606-10.002858 4.2940836-0.423938 0.175794-0.6071821 0.474063-0.298717 0.732223 0.265588 0.218821 1.237427 0.519364 2.0211905 0.671884 0.668123 0.20241 1.1870905 0.0085 1.666141-0.261695 1.15125-0.682568 4.581713-2.8533677 4.766448-2.9743697 0.184734-0.121001 0.386923 0.103559 0.283534 0.212269-0.10339 0.10871-2.532899 2.2874587-3.330563 3.2725427-0.42259 0.541643-0.409932 0.830819 0.02419 1.172375 0.97392 0.763708 3.576036 2.504766 3.963222 2.610001 0.49372 0.134192 0.782877 0.02302 0.991301-0.381114z" style="fill:#e4e4e4"/>
</svg>

<svg xmlns="http://www.w3.org/2000/svg" width="22" height="22" version="1">
 <circle style="opacity:0.2" cx="11" cy="11.5" r="10"/>
 <circle style="fill:#28a4e2" cx="11" cy="11" r="10"/>
 <path style="opacity:0.2;fill:#ffffff" d="M 11,1 C 5.4605,1 1.001,5.46 1.001,11 c 0,0.08386 -0.002,0.166645 0,0.25 C 1.1331,5.827 5.5445,1.5 11,1.5 c 5.4555,0 9.867,4.3268 9.999,9.75 0.002,-0.08335 0,-0.16614 0,-0.25 C 20.999,5.46 16.5395,1 11,1 Z"/>
 <path style="opacity:0.2" d="M 14.539454,16.064779 C 14.729677,15.695934 15.822718,9.389096 15.978973,7.7587669 16.148015,6.1432479 15.266606,6.4436674 14.455569,6.7165794 12.465781,7.3884579 6.1747015,10.11184 4.4527105,11.010662 c -0.423938,0.175794 -0.6071821,0.474064 -0.298717,0.732223 0.265588,0.218821 1.237427,0.519365 2.0211905,0.671884 0.668123,0.202411 1.1870905,0.0085 1.666141,-0.261695 1.15125,-0.682568 4.581713,-2.853368 4.766448,-2.974369 0.184734,-0.121002 0.386923,0.103558 0.283534,0.212269 -0.10339,0.10871 -2.532899,2.287458 -3.330563,3.272542 -0.42259,0.541643 -0.409932,0.830819 0.02419,1.172375 0.97392,0.763708 3.576036,2.504767 3.963222,2.610002 0.49372,0.134192 0.782877,0.02302 0.991301,-0.381114 z"/>
 <path style="fill:#ffffff" d="M 14.539454,15.564779 C 14.729677,15.195934 15.822718,8.8890963 15.978973,7.2587669 16.148015,5.6432479 15.266606,5.9436674 14.455569,6.2165794 12.465781,6.8884579 6.1747015,9.61184 4.4527105,10.510663 c -0.423938,0.175794 -0.6071821,0.474063 -0.298717,0.732223 0.265588,0.218821 1.237427,0.519364 2.0211905,0.671884 0.668123,0.20241 1.1870905,0.0085 1.666141,-0.261695 1.15125,-0.682568 4.581713,-2.8533677 4.766448,-2.9743697 0.184734,-0.121001 0.386923,0.103559 0.283534,0.212269 -0.10339,0.10871 -2.532899,2.2874587 -3.330563,3.2725427 -0.42259,0.541643 -0.409932,0.830819 0.02419,1.172375 0.97392,0.763708 3.576036,2.504766 3.963222,2.610001 0.49372,0.134192 0.782877,0.02302 0.991301,-0.381114 z"/>
</svg>
